svg/color/mcdon.svg

<svg width="40" height="40" viewBox="0 0 40 40" fill="none" xmlns="http://www.w3.org/2000/svg">
<g clip-path="url(#clip0_821_4005)">
<path d="M20 0C31.0457 0 40 8.9543 40 20C40 31.0457 31.0457 40 20 40C8.95431 40 7.90517e-06 31.0457 0 20C6.58765e-07 8.95431 8.95431 1.97595e-06 20 0Z" fill="#F8CFD2"/>
<path d="M26 6C30.4183 6 34 9.58172 34 14V26C34 30.4183 30.4183 34 26 34H14C9.58172 34 6 30.4183 6 26V14C6 9.58172 9.58172 6 14 6H26Z" fill="#DB1020"/>
<path d="M24.1507 12.8798C25.7863 12.8798 27.1131 19.7784 27.1131 28.2999H29.5C29.5 19.126 27.0917 11.7002 24.1436 11.7002C22.4597 11.7002 20.9714 13.9248 19.9889 17.4216C19.0065 13.9256 17.5181 11.7002 15.8477 11.7002C12.8995 11.7002 10.5 19.1197 10.5 28.2935H12.8861C12.8861 19.7728 14.1987 12.8798 15.8343 12.8798C17.4698 12.8798 18.7959 19.2527 18.7959 27.1139H21.1685C21.1685 19.2527 22.5017 12.8798 24.1373 12.8798H24.1507Z" fill="white"/>
</g>
<defs>
<clipPath id="clip0_821_4005">
<rect width="40" height="40" fill="white"/>
</clipPath>
</defs>
</svg>

<svg xmlns="http://www.w3.org/2000/svg" width="40" height="40" fill="none" viewBox="0 0 40 40"><g clip-path="url(#mcdon_svg-a)"><path fill="#F8CFD2" d="M20 0c11.046 0 20 8.954 20 20s-8.954 20-20 20S0 31.046 0 20 8.954 0 20 0"/><path fill="#DB1020" d="M26 6a8 8 0 0 1 8 8v12a8 8 0 0 1-8 8H14a8 8 0 0 1-8-8V14a8 8 0 0 1 8-8z"/><path fill="#fff" d="M24.15 12.88c1.636 0 2.963 6.898 2.963 15.42H29.5c0-9.174-2.408-16.6-5.356-16.6-1.684 0-3.173 2.225-4.155 5.722-.983-3.496-2.47-5.722-4.141-5.722-2.949 0-5.348 7.42-5.348 16.594h2.386c0-8.521 1.313-15.414 2.948-15.414s2.962 6.373 2.962 14.234h2.373c0-7.861 1.333-14.234 2.968-14.234z"/></g><defs><clipPath id="mcdon_svg-a"><path fill="#fff" d="M0 0h40v40H0z"/></clipPath></defs></svg>
